X:0893
T:Miss Sally Bartlet's Reel.
N:from John Macglashan, 1798 (flute version)
M:C
L:1/8
Q:1/2=112
I: :: ||
Z:Jack Campin * www.campin.me.uk * 2009
K:D
G|F2ED FAAB| gfed      eEEG|(F/G/A) FD FABd| ceAc      d2A:|
f|adfa gfed|(c/d/e) cA ceef| adfa      gfed|(c/d/e) eg fddf|
  adfa gfed|(c/d/e) cA ceef| afef      dAFD| GBAG      FDD|]
<end>
<start>
